icons/src/svg/copy.svg

<svg width="32" height="32" viewBox="0 0 32 32" fill="none" xmlns="http://www.w3.org/2000/svg">
<path fill-rule="evenodd" clip-rule="evenodd" d="M16.5202 1.99414C18.8398 1.99414 20.7202 3.87455 20.7202 6.19414V8.72461H25.7971C28.1167 8.72461 29.9971 10.605 29.9971 12.9246V25.808C29.9971 28.1276 28.1167 30.008 25.7971 30.008H14.4877C12.1681 30.008 10.2877 28.1276 10.2877 25.808V23.2751H6.20391C3.88431 23.2751 2.00391 21.3947 2.00391 19.0751V6.19414C2.00391 3.87454 3.88431 1.99414 6.20391 1.99414H16.5202ZM18.7202 6.19414C18.7202 4.97911 17.7352 3.99414 16.5202 3.99414H6.20391C4.98888 3.99414 4.0039 4.97911 4.0039 6.19414V19.0751C4.0039 20.2901 4.98888 21.2751 6.20391 21.2751H16.5202C17.7352 21.2751 18.7202 20.2901 18.7202 19.0751V6.19414ZM12.2877 23.2751V25.808C12.2877 27.023 13.2727 28.008 14.4877 28.008H25.7971C27.0121 28.008 27.9971 27.023 27.9971 25.808V12.9246C27.9971 11.7096 27.0121 10.7246 25.7971 10.7246H20.7202V19.0751C20.7202 21.3947 18.8398 23.2751 16.5202 23.2751H12.2877Z" fill="#0D0F13"/>
</svg>

<svg fill="none" xmlns="http://www.w3.org/2000/svg" viewBox="0 0 32 32">
  <path fill-rule="evenodd" clip-rule="evenodd" d="M18.72 6.194a2.2 2.2 0 0 0-2.2-2.2H6.203a2.2 2.2 0 0 0-2.2 2.2v12.88a2.2 2.2 0 0 0 2.2 2.2H16.52a2.2 2.2 0 0 0 2.2-2.2V6.195Zm-2.2-4.2a4.2 4.2 0 0 1 4.2 4.2v2.53h5.076a4.2 4.2 0 0 1 4.2 4.2v12.884a4.2 4.2 0 0 1-4.2 4.2H14.487a4.2 4.2 0 0 1-4.2-4.2v-2.533H6.203a4.2 4.2 0 0 1-4.2-4.2V6.194a4.2 4.2 0 0 1 4.2-4.2H16.52Zm-4.233 21.28v2.534a2.2 2.2 0 0 0 2.2 2.2h11.31a2.2 2.2 0 0 0 2.2-2.2V12.925a2.2 2.2 0 0 0-2.2-2.2H20.72v8.35a4.2 4.2 0 0 1-4.2 4.2h-4.233Z" fill="currentColor"/>
</svg>
